X:1
T:[ID 6-45]
T:[ID 6-45]
T:Bezeichnung standardisiert: Boure Boure 15.
T:Urheber unbekannt Datum in der hier transkribierten schriftlichen Quelle: 1775
C:Urheber unbekannt
C:Datum in der hier transkribierten schriftlichen Quelle: 1775
L:1/8
M:2/4
K:G
V:1 treble 
V:1
 c/B/ | AG AB/A/ | G2 z c/B/ | AE/C/ DC/B,/ | C3 :: c | dc[df]c | dcfc | dc d/c/B/A/ | %9
 G/F/G/A/ Gc/B/ | AG AB/A/ | G2 z c/B/ | AE/C/ DC/B,/ | C3 :| %14

